X: 16249
T: Greig's Pipes
R: reel
M: 4/4
K: Amajor
A2cA BAcB|A2cA BAFE|A2cA BABc|efed cBAG|
A2cA BAcB|A2cA BAFE|(3efe cA (3BcB AF|EFAc ~B2Ae||
feae feae|feae dcBA|feae feae|efed cAAe|
feae feae|feae dcBA|Ac (3efg abaf|efed ce a2||
e3f e3f|e2cA BAFE|e3f e2cA|(3Bcd cA Bc (3efg|
agfa gfeg|fedf ecAc|(3ded fd (3cdc ec|(3Bcd cA BAFE||

